_icons/SVG/370-luvdisc.svg

<svg xmlns="http://www.w3.org/2000/svg" width="32" height="32"><path fill="#EA8BB4" d="M31.321 19.713a9.008 9.008 0 00-2.701-3.691L5.343 16c-.007 1.598-.735 3.002-1.809 3.766l-.009-.007-.003.004 13.917 10.254v-.005A8.841 8.841 0 0023.031 32c4.93 0 8.927-4.022 8.927-8.982 0-1.17-.233-2.281-.637-3.305z"/><path fill="#58B7AE" d="M17.438 15.978l.03.022-.03.022v-.044z"/><g fill="#FFF0D7"><path d="M.541 16c-.34 0-.575.33-.477.656.133.444.406.853.817 1.156l2.653 1.955c1.079-.768 1.809-2.16 1.809-3.767H.541z"/><path d="M3.534 12.234L.881 14.188a2.222 2.222 0 00-.817 1.156.504.504 0 00.477.656h4.802c0-1.607-.73-2.999-1.809-3.766z"/></g><circle fill="#FCD2BE" cx="16.458" cy="16.022" r="2.5"/><path fill="#F297BE" d="M31.958 8.982c0-4.96-3.996-8.982-8.927-8.982a8.847 8.847 0 00-5.593 1.987v-.005L3.523 12.235l.003.005.008-.006c1.079.767 1.809 2.159 1.809 3.766l2.572.022H28.62L28.596 16a8.982 8.982 0 003.362-7.018z"/><path fill="#FCD2BE" d="M.541 16c-.34 0-.575.33-.477.656.133.444.406.853.817 1.156l2.653 1.955c1.079-.768 1.809-2.16 1.809-3.767H.541z"/><path fill="#FCDDCF" d="M3.534 12.234L.881 14.188a2.222 2.222 0 00-.817 1.156.504.504 0 00.477.656h4.802c0-1.607-.73-2.999-1.809-3.766z"/><circle fill="#2B3332" cx="9.958" cy="13" r="2"/><circle fill="#FFF" cx="9.667" cy="12.25" r=".5"/><path fill="#0A6F8E" d="M11.804 13.769a.984.984 0 00-.846-.498 1 1 0 00-.712 1.7 1.997 1.997 0 001.558-1.202z"/><path fill="#FCDDCF" d="M16.458 13.522a2.5 2.5 0 00-2.5 2.5h5a2.5 2.5 0 00-2.5-2.5z"/></svg>

<?xml version="1.0" encoding="utf-8"?>
<!-- Generator: Adobe Illustrator 23.0.6, SVG Export Plug-In . SVG Version: 6.00 Build 0)  -->
<svg version="1.1" xmlns="http://www.w3.org/2000/svg" xmlns:xlink="http://www.w3.org/1999/xlink" x="0px" y="0px" width="32px"
	 height="32px" viewBox="0 0 32 32" enable-background="new 0 0 32 32" xml:space="preserve">
<g id="labels">
	<g>
	</g>
</g>
<g id="icons">
	<g>
		<path fill="#EA8BB4" d="M31.321,19.713c-0.575-1.454-1.508-2.725-2.701-3.691L5.343,16c-0.007,1.598-0.735,3.002-1.809,3.766
			l-0.009-0.007c-0.001,0.001-0.002,0.003-0.003,0.004l13.917,10.254v-0.005C18.969,31.254,20.913,32,23.031,32
			c4.93,0,8.927-4.022,8.927-8.982C31.958,21.848,31.725,20.737,31.321,19.713z"/>
		<path fill="#58B7AE" d="M17.438,15.978c0.01,0.008,0.02,0.015,0.03,0.022c-0.01,0.008-0.02,0.015-0.03,0.022V15.978z"/>
		<g>
			<path fill="#FFF0D7" d="M0.541,16c-0.34,0-0.575,0.33-0.477,0.656c0.133,0.444,0.406,0.853,0.817,1.156l2.653,1.955
				C4.613,18.999,5.343,17.607,5.343,16v0H0.541z"/>
			<path fill="#FFF0D7" d="M3.534,12.234l-2.653,1.954C0.47,14.491,0.197,14.9,0.064,15.344C-0.034,15.67,0.201,16,0.541,16h4.802
				C5.343,14.393,4.613,13.001,3.534,12.234z"/>
		</g>
		<circle fill="#FCD2BE" cx="16.458" cy="16.022" r="2.5"/>
		<path fill="#F297BE" d="M31.958,8.982C31.958,4.022,27.962,0,23.031,0c-2.119,0-4.063,0.746-5.593,1.987V1.982L3.523,12.235
			c0.001,0.001,0.002,0.004,0.003,0.005l0.008-0.006C4.613,13.001,5.343,14.393,5.343,16l2.572,0.022H28.62
			c-0.009-0.007-0.016-0.015-0.024-0.022C30.643,14.354,31.958,11.825,31.958,8.982z"/>
		<path fill="#FCD2BE" d="M0.541,16c-0.34,0-0.575,0.33-0.477,0.656c0.133,0.444,0.406,0.853,0.817,1.156l2.653,1.955
			C4.613,18.999,5.343,17.607,5.343,16v0H0.541z"/>
		<path fill="#FCDDCF" d="M3.534,12.234l-2.653,1.954C0.47,14.491,0.197,14.9,0.064,15.344C-0.034,15.67,0.201,16,0.541,16h4.802
			C5.343,14.393,4.613,13.001,3.534,12.234z"/>
		<g>
			<circle fill="#2B3332" cx="9.958" cy="13" r="2"/>
			<circle fill="#FFFFFF" cx="9.667" cy="12.25" r="0.5"/>
			<path fill="#0A6F8E" d="M11.804,13.769c-0.174-0.293-0.48-0.498-0.846-0.498c-0.552,0-1,0.448-1,1c0,0.273,0.111,0.52,0.288,0.7
				C10.951,14.868,11.538,14.406,11.804,13.769z"/>
		</g>
		<path fill="#FCDDCF" d="M16.458,13.522c-1.381,0-2.5,1.119-2.5,2.5h5C18.958,14.642,17.839,13.522,16.458,13.522z"/>
	</g>
</g>
</svg>
